X: 84
T:Minuet,A. HA.083
M:3/4
Q:70
C:in Hand C
S:Henry Atkinson's original MS,Hartburn,N'umberland,1694.
O:England
A:Hartburn,Northumberland
H:1/4
Z:vmp.Chris Partington.Jan.2004
K:C
e>fe|de2|fga|ged|\
e>fe|de2|cd2|B3:|!
|:g>fe|f>ga|def|e2d|\
def|g2g|g>ag|g3|!
gfe|f>ga|def|e2c|\
g2a|gec|c2B|c2|]
